!!!OTL: The Maid of Ballydoo, S. 70
!!!id: I0519
**kern
*clefG2
*k[]
*C:
{16e
16f
=1
8g
8g
8g
8g
8g
8e
8f
8g
=2
8.cc
16e
8f
8d
4.c}
=3
{16e
16d
=4
8c
8d
8e
8f
8g
8a
8b
8cc
=5
8dd
8g
8dd
8a
4.g}
=6
{16g
16f
=7
8e
8d
8e
8f
8g
8e
8d
8c
=8
8e
8d
8d
8c
4.cc}
=9
{16cc
16dd
=10
8ee
8cc
8dd
8b
8cc
8g
8f
16g
16f
=11
8e
8c
8d
8d
4.c}
==
*-
!!!minrhy: 16
!!!meters: 4/4 ]  ZZ[4
!!!cut: The Maid of Ballydoo, S. 70
!!!reg: Irland
!!!trd: O BOYLE, Sean: 25 Irish Folksongs, Dublin 1976
!!!rhy1: XX  X_X_X_X_X_X_X_X_  X_.XX_X_X__.
!!!rhy2: XX  X_X_X_X_X_X_X_X_  X_X_X_X_X__.
!!!key: I0519  16  C 4/4 ]  ZZ[4
!!!mod: HEPTATONIK IONISCH]  AMBITUS[10
!!!kad: 15+11
!!!akz: 55+11_15+25_353+1_+3+131_
!!!fot: 'a__b__c__d__
!!!for: 'a__b__b__c__
!!!fok: '^d_Sa_Wa_^d_
!! PHRAS[AUFTAKTIG]
!!!fkt: Liebeslied
!! IRISCHE VKL.
!! PR[13] 2K[10] 2G[22] 3K[6] 3G[0] 4A[0] 4Ü[0] 5A[1] 6K[4] 6G[0]
!! 7K[0] 7G[0] 8A[0] MEHR[0] SI[43] ABS[72] SR[32] SP[11]
!! ST[16] 2k[4] 2g[21] 3k[18] 3g[0] 4d[1] 4ü[0] 5d[0] 6k[0] 6g[0]
!! 7k[0] 7g[0] 8d[0] mehr[0] si[44] dm[-1] sr[25] sp[19]
!! 1F[70] 2F[29] 3F[0] 4F[0] LF[0] 2P[1] 3P[0] 4P[0] TRI[0] DF[3] AB[73]
!! TF[0] U3K[0] U3[0] U4[0] U4Ü[0] U5[8] U6K[0] U6[0] U7K[10] U7[0]
!! N1[19] N2K[0] N2[8] N3K[12] N3[0] N4[14] N4Ü[0] N5[12] N6K[4] N6[1]
!!!n7k: 5] N7[0] O1[5] O2K[0] O2[0] O3K[0] O3[0] HÖ[0
